img/logos/php.svg

<?xml version="1.0" encoding="UTF-8" standalone="no"?>
<svg width="256px" height="134px" viewBox="0 0 256 134" version="1.1" xmlns="http://www.w3.org/2000/svg" xmlns:xlink="http://www.w3.org/1999/xlink" preserveAspectRatio="xMinYMin meet">
	<g fill-rule="evenodd">
		<ellipse fill="#8993BE" cx="128" cy="66.630137" rx="128" ry="66.630137"></ellipse>
		<path d="M35.9452055,106.082192 L49.9726027,35.0684932 L82.4109589,35.0684932 C96.4383562,35.9452055 103.452055,42.9589041 103.452055,55.2328767 C103.452055,76.2739726 86.7945205,88.5479452 71.890411,87.6712329 L56.109589,87.6712329 L52.6027397,106.082192 L35.9452055,106.082192 L35.9452055,106.082192 Z M59.6164384,74.5205479 L64,48.2191781 L75.3972603,48.2191781 C81.5342466,48.2191781 85.9178082,50.8493151 85.9178082,56.109589 C85.0410959,71.0136986 78.0273973,73.6438356 70.1369863,74.5205479 L59.6164384,74.5205479 L59.6164384,74.5205479 Z" fill="#232531"></path>
		<path d="M100.191781,87.6712329 L114.219178,16.6575342 L130.876712,16.6575342 L127.369863,35.0684932 L143.150685,35.0684932 C157.178082,35.9452055 162.438356,42.9589041 160.684932,51.7260274 L154.547945,87.6712329 L137.013699,87.6712329 L143.150685,55.2328767 C144.027397,50.8493151 144.027397,48.2191781 137.890411,48.2191781 L124.739726,48.2191781 L116.849315,87.6712329 L100.191781,87.6712329 L100.191781,87.6712329 Z" fill="#232531"></path>
		<path d="M153.424658,106.082192 L167.452055,35.0684932 L199.890411,35.0684932 C213.917808,35.9452055 220.931507,42.9589041 220.931507,55.2328767 C220.931507,76.2739726 204.273973,88.5479452 189.369863,87.6712329 L173.589041,87.6712329 L170.082192,106.082192 L153.424658,106.082192 L153.424658,106.082192 Z M177.09589,74.5205479 L181.479452,48.2191781 L192.876712,48.2191781 C199.013699,48.2191781 203.39726,50.8493151 203.39726,56.109589 C202.520548,71.0136986 195.506849,73.6438356 187.616438,74.5205479 L177.09589,74.5205479 L177.09589,74.5205479 Z" fill="#232531"></path>
	</g>
</svg>

<svg width="256" height="134" viewBox="0 0 256 134" xmlns="http://www.w3.org/2000/svg" preserveAspectRatio="xMinYMin meet"><g fill-rule="evenodd"><ellipse fill="#8993BE" cx="128" cy="66.63" rx="128" ry="66.63"/><path d="M35.945 106.082l14.028-71.014H82.41c14.028.877 21.042 7.89 21.042 20.165 0 21.04-16.657 33.315-31.562 32.438H56.11l-3.507 18.412H35.945zm23.67-31.56L64 48.218h11.397c6.137 0 10.52 2.63 10.52 7.89-.876 14.904-7.89 17.534-15.78 18.41h-10.52zM100.192 87.67L114.22 16.66h16.657l-3.507 18.41h15.78c14.028.877 19.288 7.89 17.535 16.658l-6.137 35.945h-17.534l6.137-32.437c.877-4.384.877-7.014-5.26-7.014h-13.15l-7.89 39.45H100.19zM153.425 106.082l14.027-71.014h32.438c14.028.877 21.042 7.89 21.042 20.165 0 21.04-16.658 33.315-31.562 32.438h-15.78l-3.508 18.412h-16.657zm23.67-31.56l4.384-26.303h11.397c6.137 0 10.52 2.63 10.52 7.89-.876 14.904-7.89 17.534-15.78 18.41h-10.52z" fill="#232531"/></g></svg>
